X: 55
T: Siobhan O'Donnell's
M:2/2
L:1/8
R:reel
Z:Rob Greenway
S:Rob Greenway <robgreenway:yahoo.com> IrishTradAccord 2005-4-29
K:A
ABce a3e|~f3a fece|f2fe cBAF|EFAB cBAF|
E2EA ~c3e|~f3a fece|f2ec dBcA|BcAB cAAB:|
|:ABce fece|fA~A2 fAeA|fA~A2 fAeA|aefa eAce|
~f3e cBAF|~E3F ABce|f2ec dBcA|BcAB cAAB:|

%%sep 1 1 500

